X:188
T:Down the Tannoch Road
L:1/8
R:Jig
M:6/8
K:D % 2 sharps
||:"D"AFG A2d|"G"c2B B2B|"Em"BEF G2c|"G"B2A A2A|"D"AFG A2d|\
"Em"e2B Bed|"A"c2B ABc|1:"D"d3 d2B:||2:d3 d2||e|"D"f2d Adf|"A7"g2e Ace|\
"D"f2d Adf|"A"efd cBA|"D"f2d Adf|"A7"g2e Ace|"D"faf "A7"gec|"D"edd d2:||

%  <A name="D1X189"></A>
